X: 24471
T: Lucky Trapper, The
R: reel
M: 4/4
K: Dmajor
D2FD EDFD|A,DFD GDFD|E2CE A,ECE|A,CEG FDEC|
D2FD EDFD|A,DFD GDFD|[M:6/4] E2ED CDEF GABc|1 [M:4/4] d3ddBAF:|2 [M:4/4] d3ddcBA||
|:d3ddcBA|e2eeefed|cA(3.A.A.A ABAG|FDEG FDFA|
d3ddcBA|e2eeefed|cAeA fAec|1 dfec dcBA:|2 dfec dBAF||

